dist/upp/assets/img/cases/2.svg

<svg width="25" height="24" viewBox="0 0 25 24" fill="none" xmlns="http://www.w3.org/2000/svg">
<g id="9042522_gym_icon 1" clip-path="url(#clip0_356_3207)">
<path id="Vector" d="M7.73203 7H4.93203C4.60066 7 4.33203 7.26863 4.33203 7.6V16.4C4.33203 16.7314 4.60066 17 4.93203 17H7.73203C8.0634 17 8.33203 16.7314 8.33203 16.4V7.6C8.33203 7.26863 8.0634 7 7.73203 7Z" stroke="#D8DEFD" stroke-width="2" stroke-linecap="round" stroke-linejoin="round"/>
<path id="Vector_2" d="M19.732 7H16.932C16.6006 7 16.332 7.26863 16.332 7.6V16.4C16.332 16.7314 16.6006 17 16.932 17H19.732C20.0634 17 20.332 16.7314 20.332 16.4V7.6C20.332 7.26863 20.0634 7 19.732 7Z" stroke="#D8DEFD" stroke-width="2" stroke-linecap="round" stroke-linejoin="round"/>
<path id="Vector_3" d="M1.33203 14.4V9.6C1.33203 9.26863 1.60066 9 1.93203 9H3.73203C4.0634 9 4.33203 9.26863 4.33203 9.6V14.4C4.33203 14.7314 4.0634 15 3.73203 15H1.93203C1.60066 15 1.33203 14.7314 1.33203 14.4Z" stroke="#D8DEFD" stroke-width="2" stroke-linecap="round" stroke-linejoin="round"/>
<path id="Vector_4" d="M23.332 14.4V9.6C23.332 9.26863 23.0634 9 22.732 9H20.932C20.6006 9 20.332 9.26863 20.332 9.6V14.4C20.332 14.7314 20.6006 15 20.932 15H22.732C23.0634 15 23.332 14.7314 23.332 14.4Z" stroke="#D8DEFD" stroke-width="2" stroke-linecap="round" stroke-linejoin="round"/>
<path id="Vector_5" d="M8.33203 12H16.332" stroke="#D8DEFD" stroke-width="2" stroke-linecap="round" stroke-linejoin="round"/>
</g>
<defs>
<clipPath id="clip0_356_3207">
<rect width="24" height="24" fill="white" transform="translate(0.332031)"/>
</clipPath>
</defs>
</svg>

<svg width="25" height="24" fill="none" xmlns="http://www.w3.org/2000/svg"><g id="9042522_gym_icon 1" clip-path="url(#clip0_356_3207)" stroke="#D8DEFD" stroke-width="2" stroke-linecap="round" stroke-linejoin="round"><path id="Vector" d="M7.732 7h-2.8a.6.6 0 00-.6.6v8.8a.6.6 0 00.6.6h2.8a.6.6 0 00.6-.6V7.6a.6.6 0 00-.6-.6z"/><path id="Vector_2" d="M19.732 7h-2.8a.6.6 0 00-.6.6v8.8a.6.6 0 00.6.6h2.8a.6.6 0 00.6-.6V7.6a.6.6 0 00-.6-.6z"/><path id="Vector_3" d="M1.332 14.4V9.6a.6.6 0 01.6-.6h1.8a.6.6 0 01.6.6v4.8a.6.6 0 01-.6.6h-1.8a.6.6 0 01-.6-.6z"/><path id="Vector_4" d="M23.332 14.4V9.6a.6.6 0 00-.6-.6h-1.8a.6.6 0 00-.6.6v4.8a.6.6 0 00.6.6h1.8a.6.6 0 00.6-.6z"/><path id="Vector_5" d="M8.332 12h8"/></g><defs><clipPath id="clip0_356_3207"><path fill="#fff" transform="translate(.332)" d="M0 0h24v24H0z"/></clipPath></defs></svg>
